rospo-newyear-dark/symbolic/status/software-update-available-symbolic.svg

<svg height="16" width="16" xmlns="http://www.w3.org/2000/svg"><path d="m5.81 3h-2.81v2.81l-2.28 2.19 2.28 2.22v2.78h2.81l2.19 2.28 2.22-2.28h2.78v-2.78l2.28-2.22-2.28-2.19v-2.81h-2.78l-2.22-2.28m0 3.43 2.5 3.85h-1.5v4h-2v-4h-1.5z" fill="#d3dae3"/></svg>

<svg xmlns="http://www.w3.org/2000/svg" width="16" height="16" version="1.1">
 <path style="fill:#d3dae3" d="M 5.81,3 H 3 V 5.81 L 0.72,8 3,10.22 V 13 H 5.81 L 8,15.28 10.22,13 H 13 V 10.22 L 15.28,8 13,5.81 V 3 H 10.22 L 8,0.72 M 8,4.15 10.5,8 H 9 V 12 H 7 V 8 H 5.5 Z"/>
</svg>
